icons/go.svg

<svg width="16" height="16" viewBox="0 0 16 16" fill="none" xmlns="http://www.w3.org/2000/svg">
<path d="M6.16 8.88C5.61 8.88 5.08 8.88 4.53 8.88C4.8824 7.5256 4.53 8.88 4.8824 7.5256C6 7.5 6.91517 7.51 7.66 7.51C7.67841 7.51282 7.6972 7.51194 7.71526 7.50741C7.73333 7.50288 7.75031 7.49479 7.76521 7.48361C7.78011 7.47244 7.79263 7.4584 7.80204 7.44233C7.81145 7.42625 7.81755 7.40846 7.82 7.39C8.04385 6.76263 8.42867 6.20513 8.9359 5.77337C9.44313 5.34161 10.0549 5.05077 10.71 4.93C11.3721 4.77405 12.067 4.83805 12.6895 5.11231C13.312 5.38657 13.8282 5.85616 14.16 6.45L14.24 6.6C14.4452 7.08093 14.5331 7.60372 14.4966 8.12531C14.4601 8.6469 14.3002 9.15234 14.03 9.6C13.5943 10.2938 12.9602 10.8408 12.21 11.17C11.8024 11.3764 11.3553 11.4931 10.8988 11.5122C10.4423 11.5314 9.98704 11.4526 9.56355 11.2811C9.14007 11.1096 8.75822 10.8495 8.44367 10.5181C8.12913 10.1867 7.88919 9.79184 7.74 9.36C6.86 11.25 4.24 12.19 2.54 10.81C0.0624633 8.86513 2.08915 4.71147 4.93639 4.71146C5.94365 4.71146 7.4323 5.11231 8 6.6C7.49 6.78 7 6.86 6.46 7.03C6.08296 6.6 5.64395 6.44766 5.08434 6.4453C4.7847 6.44403 4.48964 6.51886 4.22682 6.66276C3.96399 6.80667 3.742 7.01494 3.58165 7.26807C3.42129 7.52119 3.32782 7.81088 3.31 8.11C3.26435 8.46708 3.34953 8.82862 3.54978 9.12777C3.75003 9.42692 4.05182 9.64346 4.39935 9.73735C4.74688 9.83125 5.11665 9.79615 5.4403 9.63854C5.76396 9.48094 6.01961 9.21148 6.16 8.88ZM11.34 6.44C9.51 6.37 8.55 9.26 10.57 9.77C12.59 10.28 13.79 6.65 11.34 6.44Z" fill="#34CBCE"/>
</svg>

<svg xmlns="http://www.w3.org/2000/svg" width="16" height="16" fill="none"><path fill="#34CBCE" d="M6.16 8.88H4.53l.352-1.354C6 7.5 6.915 7.51 7.66 7.51a.14.14 0 0 0 .16-.12 3.8 3.8 0 0 1 2.89-2.46 3.13 3.13 0 0 1 3.45 1.52l.08.15a3.3 3.3 0 0 1-.21 3 4.09 4.09 0 0 1-1.82 1.57 3.198 3.198 0 0 1-4.47-1.81c-.88 1.89-3.5 2.83-5.2 1.45-2.478-1.945-.45-6.099 2.396-6.099 1.008 0 2.496.401 3.064 1.889-.51.18-1 .26-1.54.43-.377-.43-.816-.582-1.376-.585A1.77 1.77 0 0 0 3.31 8.11a1.49 1.49 0 0 0 2.85.77Zm5.18-2.44c-1.83-.07-2.79 2.82-.77 3.33 2.02.51 3.22-3.12.77-3.33Z"/></svg>
